outputs/icons/hardware/memory_sharp.svg

<svg xmlns="http://www.w3.org/2000/svg" width="1200" height="1200" fill="none"><g clip-path="url(#a)"><path fill="#000" d="M750 450H450v300h300zM650 650H550V550h100zm400-100V450H950V250H750V150H650v100H550V150H450v100H250v200H150v100h100v100H150v100h100v200h200v100h100V950h100v100h100V950h200V750h100V650H950V550zM850 850H350V350h500z"/></g><defs><clipPath id="a"><path fill="#fff" d="M0 0h1200v1200H0z"/></clipPath></defs></svg>

<svg width="1200" height="1200" viewBox="0 0 1200 1200" fill="none" xmlns="http://www.w3.org/2000/svg"><g clip-path="url(#clip0_133_39)"><path d="M750 450H450V750H750V450ZM650 650H550V550H650V650ZM1050 550V450H950V250H750V150H650V250H550V150H450V250H250V450H150V550H250V650H150V750H250V950H450V1050H550V950H650V1050H750V950H950V750H1050V650H950V550H1050ZM850 850H350V350H850V850Z" fill="#1D1E23"/></g><defs><clipPath id="clip0_133_39"><path width="24" fill="white" d="M0 0H1200V1200H0V0z"/></clipPath></defs></svg>
